X: 1
T: DOMINO -- HIGHLAND FLING
B: Ryan's Mammoth Collection of Fiddle Tunes
R: highland fling
M: C|
L: 1/8
Z: Contributed 20080604 by John Chambers jc:jc.tzo.net
K: G
uD2 \
| kvG2 d>B G2 d>B | (c<A) (B<G) A>GF>D \
| kG2 d>B kG2 d>B | c>AG>F G2 :|
|: ud2 \
| vTg2 e>g d>gB>d | Tg2 f>g a>fe>d | Tg2 e>g d>gB>g | e>c A>c (B<G) :|
